X: 146
T: Fen ju zaoliu ma The bay horse with white breast and whitish muzzle
%%abc-version 2.0
%%abcx-abcm2ps-target-version 5.9.1 (29 Sep 2008)
%%abc-creator hum2abc beta
%%abcx-conversion-date 2013/10/02 07:44:27
%%abc-edited-by Helmut Schaffrath
%%humdrum-veritas 1879148993
%%humdrum-veritas-data 1981827633
%%continueall 1
%%barnumbers 0
L: 1/16
M: 2/4
K: C
E4G2 A2 [I:setbarnb 1]| 
d8- | 
d4e d e g | 
c4A c A2 | 
G2 A2 G A G2- | 
G8 | 
(3E D EG6- | 
G8 |]  



